X:1
T:Wedlock
M:4/4
L:1/4
K:C
 z2 c2| e e d c| A3/2- B/2 G E| G G A c| d2 c2| e e d c| A3/2- B/2 G E|\
 G G A c| c2 G2| f e e g| a a e- f| g3/2 e/2 d c| d2 g2| e e d c| A3/2- B/2 G E|\
 G3/2 G/2 A c| c2 z2|

